icons/olapic.svg

<?xml version="1.0" encoding="UTF-8" standalone="no"?>
<svg width="256px" height="255px" viewBox="0 0 256 255" version="1.1" xmlns="http://www.w3.org/2000/svg" xmlns:xlink="http://www.w3.org/1999/xlink">
    <defs></defs>
    <g stroke="none" stroke-width="1" fill="none" fill-rule="evenodd">
        <g>
            <path d="M239.483871,107.679066 L233.060932,107.679066 L233.060932,94.8331878 C233.060932,92.9980624 231.225806,91.1629369 229.390681,91.1629369 L208.286738,91.1629369 C206.451613,91.1629369 204.616487,92.9980624 204.616487,94.8331878 L204.616487,107.679066 L176.172043,107.679066 L176.172043,101.256127 C176.172043,92.0804997 168.831541,84.7399979 159.655914,84.7399979 L98.1792115,84.7399979 C89.0035842,84.7399979 81.6630824,92.0804997 81.6630824,101.256127 L81.6630824,107.679066 L55.9713262,107.679066 L55.9713262,99.4210014 C55.9713262,96.6683133 54.1362007,94.8331878 51.3835125,94.8331878 L49.5483871,94.8331878 L49.5483871,91.1629369 C49.5483871,89.3278115 48.6308244,88.4102488 46.7956989,88.4102488 L30.2795699,88.4102488 C28.4444444,88.4102488 27.5268817,89.3278115 27.5268817,91.1629369 L27.5268817,94.8331878 L24.7741935,94.8331878 C22.0215054,94.8331878 20.1863799,96.6683133 20.1863799,99.4210014 L20.1863799,107.679066 L16.516129,107.679066 C7.34050179,107.679066 0,115.019568 0,124.195195 L0,237.972973 C0,247.1486 7.34050179,254.489102 16.516129,254.489102 L239.483871,254.489102 C248.659498,254.489102 256,247.1486 256,237.972973 L256,124.195195 C256,115.019568 248.659498,107.679066 239.483871,107.679066 L239.483871,107.679066 Z M128.458781,232.467596 C100.014337,232.467596 77.0752688,209.528528 77.0752688,181.084084 C77.0752688,152.639639 100.014337,129.700571 128.458781,129.700571 C156.903226,129.700571 179.842294,152.639639 179.842294,181.084084 C179.842294,209.528528 156.903226,232.467596 128.458781,232.467596 L128.458781,232.467596 Z M157.820789,181.084084 C157.820789,197.600213 144.057348,211.363654 127.541219,211.363654 C111.02509,211.363654 97.2616487,197.600213 97.2616487,181.084084 C97.2616487,164.567955 111.02509,150.804514 127.541219,150.804514 C144.97491,150.804514 157.820789,164.567955 157.820789,181.084084 L157.820789,181.084084 Z" fill="#4F4C4D"></path>
            <path d="M72.8987764,0 L3.64493882,0 C1.82246941,0 0,1.82246941 0,4.55617353 L0,58.3190211 C0,61.0527253 1.82246941,62.8751947 4.55617353,62.8751947 L49.2066741,62.8751947 L65.6088988,79.2774194 L65.6088988,62.8751947 L73.8100111,62.8751947 C76.5437152,62.8751947 78.3661846,61.0527253 78.3661846,58.3190211 L78.3661846,4.55617353 C77.4549499,1.82246941 75.6324805,0 72.8987764,0 L72.8987764,0 Z M24.603337,49.2066741 L18.2246941,49.2066741 L18.2246941,39.1830923 L24.603337,39.1830923 L24.603337,49.2066741 L24.603337,49.2066741 Z M35.5381535,49.2066741 L30.0707453,49.2066741 L30.0707453,31.8932147 L36.4493882,31.8932147 L36.4493882,49.2066741 L35.5381535,49.2066741 Z M47.3842047,49.2066741 L41.9167964,49.2066741 L41.9167964,27.3370412 L48.2954394,27.3370412 L48.2954394,49.2066741 L47.3842047,49.2066741 Z M59.2302558,49.2066741 L52.8516129,49.2066741 L52.8516129,12.7572859 L59.2302558,12.7572859 L59.2302558,49.2066741 L59.2302558,49.2066741 Z" fill="#E9004C"></path>
            <path d="M251.443826,0 L182.189989,0 C179.456285,0 177.633815,1.82246941 177.633815,4.55617353 L177.633815,58.3190211 C177.633815,61.0527253 179.456285,62.8751947 182.189989,62.8751947 L190.391101,62.8751947 L190.391101,79.2774194 L206.793326,62.8751947 L251.443826,62.8751947 C254.177531,62.8751947 256,61.0527253 256,58.3190211 L256,4.55617353 C256,2.73370412 254.177531,0 251.443826,0 L251.443826,0 Z M234.130367,27.3370412 L226.840489,27.3370412 L226.840489,35.5381535 L234.130367,35.5381535 L234.130367,41.0055617 L226.840489,41.0055617 L226.840489,49.2066741 L221.373081,49.2066741 L221.373081,41.0055617 L213.171969,41.0055617 L213.171969,49.2066741 L207.704561,49.2066741 L207.704561,41.0055617 L200.414683,41.0055617 L200.414683,35.5381535 L207.704561,35.5381535 L207.704561,27.3370412 L200.414683,27.3370412 L200.414683,21.8696329 L207.704561,21.8696329 L207.704561,13.6685206 L213.171969,13.6685206 L213.171969,21.8696329 L221.373081,21.8696329 L221.373081,13.6685206 L226.840489,13.6685206 L226.840489,21.8696329 L234.130367,21.8696329 L234.130367,27.3370412 L234.130367,27.3370412 Z M212.260734,27.3370412 L220.461846,27.3370412 L220.461846,35.5381535 L212.260734,35.5381535 L212.260734,27.3370412 Z" fill="#00A8E1"></path>
            <path d="M162.626919,0 L93.3730812,0 C90.6393771,0 88.8169077,1.82246941 88.8169077,4.55617353 L88.8169077,58.3190211 C88.8169077,61.0527253 90.6393771,62.8751947 93.3730812,62.8751947 L119.798888,62.8751947 L128,79.2774194 L135.289878,62.8751947 L162.626919,62.8751947 C165.360623,62.8751947 167.183092,61.0527253 167.183092,58.3190211 L167.183092,4.55617353 C167.183092,2.73370412 164.449388,0 162.626919,0 L162.626919,0 Z M154.425806,26.4258065 C150.780868,39.1830923 128,51.9403782 128,52.8516129 L128,52.8516129 C127.088765,52.8516129 104.307898,39.1830923 101.574194,26.4258065 C97.9292547,10.9348165 116.153949,1.82246941 128,15.49099 C139.846051,2.73370412 158.070745,11.8460512 154.425806,26.4258065 L154.425806,26.4258065 Z" fill="#6CC04A"></path>
        </g>
    </g>
</svg>

<svg xmlns="http://www.w3.org/2000/svg" viewBox="0 0 256 254.489">
  <g fill="none" fill-rule="evenodd">
    <path fill="#4f4c4d" d="M239.484 107.68h-6.423V94.832c0-1.835-1.835-3.67-3.67-3.67h-21.104c-1.835 0-3.67 1.835-3.67 3.67v12.846h-28.445v-6.423c0-9.175-7.34-16.516-16.516-16.516H98.179a16.447 16.447 0 0 0-16.516 16.516v6.423H55.971v-8.258c0-2.753-1.835-4.588-4.587-4.588h-1.836v-3.67c0-1.835-.917-2.753-2.752-2.753H30.28c-1.836 0-2.753.918-2.753 2.753v3.67h-2.753c-2.752 0-4.588 1.835-4.588 4.588v8.258h-3.67A16.447 16.447 0 0 0 0 124.195v113.778c0 9.176 7.34 16.516 16.516 16.516h222.968c9.175 0 16.516-7.34 16.516-16.516V124.195c0-9.175-7.34-16.516-16.516-16.516zM128.459 232.467c-28.445 0-51.384-22.94-51.384-51.384s22.94-51.383 51.384-51.383 51.383 22.939 51.383 51.383c0 28.445-22.939 51.384-51.383 51.384zm29.362-51.384c0 16.516-13.764 30.28-30.28 30.28-16.516 0-30.28-13.764-30.28-30.28 0-16.516 13.764-30.28 30.28-30.28 17.434 0 30.28 13.764 30.28 30.28z"/>
    <path fill="#e9004c" d="M72.899 0H3.645C1.822 0 0 1.822 0 4.556V58.32c0 2.734 1.822 4.556 4.556 4.556h44.65L65.61 79.277V62.875h8.201c2.734 0 4.556-1.822 4.556-4.556V4.556C77.455 1.822 75.632 0 72.9 0zM24.603 49.207h-6.378V39.183h6.378zm10.935 0h-5.467V31.893h6.378v17.314zm11.846 0h-5.467v-21.87h6.378v21.87zm11.846 0h-6.378v-36.45h6.378z"/>
    <path fill="#00a8e1" d="M251.444 0H182.19c-2.734 0-4.556 1.822-4.556 4.556V58.32c0 2.734 1.822 4.556 4.556 4.556h8.201v16.402l16.402-16.402h44.65c2.735 0 4.557-1.822 4.557-4.556V4.556C256 2.734 254.178 0 251.444 0zM234.13 27.337h-7.29v8.201h7.29v5.468h-7.29v8.2h-5.467v-8.2h-8.201v8.2h-5.467v-8.2h-7.29v-5.468h7.29v-8.201h-7.29V21.87h7.29v-8.201h5.467v8.2h8.201v-8.2h5.467v8.2h7.29zm-21.87 0h8.202v8.201h-8.201z"/>
    <path fill="#6cc04a" d="M162.627 0H93.373c-2.734 0-4.556 1.822-4.556 4.556V58.32c0 2.734 1.822 4.556 4.556 4.556H119.8L128 79.277l7.29-16.402h27.337c2.734 0 4.556-1.822 4.556-4.556V4.556c0-1.822-2.734-4.556-4.556-4.556zm-8.201 26.426C150.78 39.183 128 51.94 128 52.852c-.911 0-23.692-13.669-26.426-26.426C97.93 10.935 116.154 1.822 128 15.49c11.846-12.757 30.07-3.645 26.426 10.935z"/>
  </g>
</svg>
